assets/images/shipping/cdek.svg

<svg width="154" height="42" viewBox="0 0 154 42" fill="none" xmlns="http://www.w3.org/2000/svg">
<path d="M22.9585 10.1534L27.376 10.1522L33.538 10.157C33.6446 10.157 33.7562 10.1583 33.8721 10.1595C35.6195 10.1786 38.3464 10.2084 39.7249 6.35674L42 0L27.446 0.00239538C19.5683 0.00299423 13.4241 2.72654 8.98851 7.23525C1.34396 15.0071 -1.28993 27.1394 0.575665 32.9562C2.29964 38.3315 7.08759 41.8716 14.5073 41.9434L20.3071 42L27.4374 41.9988L29.1937 36.9092C30.4682 33.214 27.5898 31.8436 23.7124 31.8436L16.9894 31.8448C6.52603 31.8484 14.1091 10.1576 22.9585 10.1534Z" fill="#0029FF"/>
<path d="M54.3767 10.116L60.25 10.1184C65.2542 10.1196 64.112 16.1685 61.5794 22.0639C59.3478 27.26 55.3927 31.8454 50.6743 31.8448L40.883 31.8436C36.9776 31.8436 35.177 32.8859 34.4175 35.0639L32 41.9988L39.1798 42L46.1982 41.9434C52.4223 41.8937 57.5178 41.4583 63.4765 36.2753C69.7737 30.8001 77.1159 16.5763 75.858 8.3494C74.8726 1.90253 71.2934 0.00299423 62.6263 0.00239538L46.8324 0L37.6363 26.0492L43.5653 26.0565C46.9857 26.0606 48.7173 26.0626 50.5518 21.2848L54.3767 10.116Z" fill="#0029FF"/>
<path d="M113.076 0.00299438C110.288 0.00275227 106.959 0.00221654 103.527 0.00166416C98.469 0.000850207 93.186 0 89.0778 0C85.1058 0 83.304 1.04174 82.5943 3.22165L80.3353 10.156C87.2323 10.1572 97.4366 10.1584 104.333 10.1584C108.305 10.1584 110.107 9.11608 110.817 6.93737L113.076 0.00299438Z" fill="#0029FF"/>
<path d="M107.506 15.924C100.609 15.9222 90.4039 15.921 83.5079 15.921C79.5358 15.921 77.7338 16.963 77.0241 19.1427L74.7651 26.0761C81.6621 26.0779 91.8664 26.0791 98.7627 26.0791C102.735 26.0791 104.537 25.0374 105.247 22.8581L107.506 15.924Z" fill="#0029FF"/>
<path d="M77.6647 31.8416C84.561 31.8416 94.7653 31.8428 101.662 31.844L99.4033 38.7781C98.6936 40.9574 96.8915 42 92.9198 42C88.7026 42 83.2486 41.9992 78.0703 41.9985L77.9747 41.9985C74.7187 41.998 71.5755 41.9975 68.9219 41.9973L71.1809 35.062C71.8906 32.8839 73.692 31.8416 77.6647 31.8416Z" fill="#0029FF"/>
<path d="M114.944 42H104L118.737 0H129.682L123.381 18.0715H123.508C124.811 16.4917 126.11 15.1365 127.398 13.7936C127.585 13.5996 127.77 13.4058 127.956 13.2116L140.575 0H154L133.212 18.5552L141.856 42H133.477C130.803 42 129.577 40.3797 128.386 36.6869L124.535 24.7392L119.646 28.7887L114.944 42Z" fill="#0029FF"/>
</svg>

<svg width="154" height="42" fill="none" xmlns="http://www.w3.org/2000/svg"><path d="M22.959 10.153h4.417l6.162.004.334.002c1.748.02 4.474.05 5.853-3.802L42 0 27.446.002C19.568.003 13.424 2.727 8.989 7.235 1.344 15.007-1.29 27.14.576 32.956c1.724 5.375 6.512 8.916 13.931 8.987l5.8.057 7.13-.001 1.757-5.09c1.274-3.695-1.604-5.065-5.482-5.065H16.99c-10.463.004-2.88-21.686 5.97-21.69zm31.418-.037l5.873.002c5.004.002 3.862 6.05 1.33 11.946-2.232 5.196-6.187 9.781-10.906 9.78h-9.791c-3.905 0-5.706 1.042-6.466 3.22L32 41.999l7.18.001 7.018-.057c6.224-.05 11.32-.485 17.279-5.668C69.773 30.8 77.115 16.576 75.858 8.35 74.873 1.903 71.293.003 62.626.002L46.832 0l-9.196 26.05 5.93.006c3.42.005 5.151.007 6.986-4.771l3.825-11.169zM113.076.003l-9.549-.001L89.077 0c-3.971 0-5.773 1.042-6.483 3.222l-2.259 6.934 23.998.002c3.972 0 5.774-1.042 6.484-3.22l2.259-6.935zm-5.57 15.921c-6.897-.002-17.102-.003-23.998-.003-3.972 0-5.774 1.042-6.484 3.222l-2.259 6.933c6.897.002 17.101.003 23.998.003 3.972 0 5.774-1.042 6.484-3.22l2.259-6.935zM77.665 31.842c6.896 0 17.1 0 23.997.002l-2.259 6.934C98.693 40.958 96.891 42 92.92 42c-4.217 0-9.671 0-14.85-.002h-9.148l2.259-6.936c.71-2.178 2.511-3.22 6.484-3.22zM114.944 42H104l14.737-42h10.945l-6.301 18.072h.127c1.303-1.58 2.602-2.935 3.89-4.278l.558-.582L140.575 0H154l-20.788 18.555L141.856 42h-8.379c-2.674 0-3.9-1.62-5.091-5.313l-3.851-11.948-4.889 4.05L114.944 42z" fill="#0029FF"/></svg>
